craft2/public/assets/svgicons/branches/shopping2-01.svg

<svg xmlns="http://www.w3.org/2000/svg" width="34" height="44" viewBox="0 0 34 44"><g stroke="#3B3735" stroke-width="2" stroke-linecap="round" stroke-linejoin="round" stroke-miterlimit="10" fill="none"><path d="M1 8h32v35h-32z"/><circle cx="10.144" cy="14.176" r=".715"/><circle cx="23.676" cy="14.176" r=".715"/><path d="M10 14v-5.874c0-3.737 2.939-7.126 6.676-7.126h.468c3.736 0 6.856 3.389 6.856 7.126v5.874"/><path d="M28 31.947c0 .203-.404.053-.606.053h-8.445c-.204 0 .051.15.051-.053v-9.18c0-.203 4.582-5.141 4.582-5.141s4.418 4.939 4.418 5.141v9.18z"/><path d="M21.784 19.207c-.092-.463-.143-.972-.143-1.506 0-2.137.814-3.869 1.819-3.869 1.004 0 1.819 1.732 1.819 3.869s-.814 3.869-1.819 3.869"/></g></svg>

<?xml version="1.0" encoding="utf-8"?>
<!-- Generator: Adobe Illustrator 17.0.0, SVG Export Plug-In . SVG Version: 6.00 Build 0)  -->
<!DOCTYPE svg PUBLIC "-//W3C//DTD SVG 1.1//EN" "http://www.w3.org/Graphics/SVG/1.1/DTD/svg11.dtd">
<svg version="1.1" id="Layer_1" xmlns="http://www.w3.org/2000/svg" xmlns:xlink="http://www.w3.org/1999/xlink" x="0px" y="0px"
	 width="34px" height="44px" viewBox="0 0 34 44" enable-background="new 0 0 34 44" xml:space="preserve">
<g>
	<g>
		
			<rect x="1" y="8" fill="none" stroke="#3B3735" stroke-width="2" stroke-linecap="round" stroke-linejoin="round" stroke-miterlimit="10" width="32" height="35"/>
		
			<circle fill="none" stroke="#3B3735" stroke-width="2" stroke-linecap="round" stroke-linejoin="round" stroke-miterlimit="10" cx="10.144" cy="14.176" r="0.715"/>
		
			<circle fill="none" stroke="#3B3735" stroke-width="2" stroke-linecap="round" stroke-linejoin="round" stroke-miterlimit="10" cx="23.676" cy="14.176" r="0.715"/>
		<path fill="none" stroke="#3B3735" stroke-width="2" stroke-linecap="round" stroke-linejoin="round" stroke-miterlimit="10" d="
			M10,14V8.126C10,4.389,12.939,1,16.676,1h0.468C20.88,1,24,4.389,24,8.126V14"/>
	</g>
	<g>
		<path fill="none" stroke="#3B3735" stroke-width="2" stroke-linecap="round" stroke-linejoin="round" stroke-miterlimit="10" d="
			M28,31.947C28,32.15,27.596,32,27.394,32h-8.445C18.745,32,19,32.15,19,31.947v-9.18c0-0.203,4.582-5.141,4.582-5.141
			S28,22.565,28,22.767V31.947z"/>
		<path fill="none" stroke="#3B3735" stroke-width="2" stroke-linecap="round" stroke-linejoin="round" stroke-miterlimit="10" d="
			M21.784,19.207c-0.092-0.463-0.143-0.972-0.143-1.506c0-2.137,0.814-3.869,1.819-3.869c1.004,0,1.819,1.732,1.819,3.869
			s-0.814,3.869-1.819,3.869"/>
	</g>
</g>
</svg>
